dist/img/svg/sound.svg

<svg width="24" height="30" viewBox="0 0 24 30" fill="none" xmlns="http://www.w3.org/2000/svg">
<path d="M8.25 0C6.88281 0 5.75 1.13281 5.75 2.5V17.5C5.75 18.8672 6.88281 20 8.25 20H15.75C17.1172 20 18.25 18.8672 18.25 17.5V2.5C18.25 1.13281 17.1172 0 15.75 0H8.25ZM8.25 2.5H15.75V17.5H8.25V2.5ZM0.75 12.5V17.5C0.75 21.626 4.12402 25 8.25 25H10.75V27.5H5.75V30H18.25V27.5H13.25V25H15.75C19.876 25 23.25 21.626 23.25 17.5V12.5H20.75V17.5C20.75 20.2734 18.5234 22.5 15.75 22.5H8.25C5.47656 22.5 3.25 20.2734 3.25 17.5V12.5H0.75Z" fill="white"/>
</svg>

<svg width="24" height="30" viewBox="0 0 24 30" fill="none" xmlns="http://www.w3.org/2000/svg"><path d="M8.25 0a2.518 2.518 0 00-2.5 2.5v15c0 1.367 1.133 2.5 2.5 2.5h7.5c1.367 0 2.5-1.133 2.5-2.5v-15c0-1.367-1.133-2.5-2.5-2.5h-7.5zm0 2.5h7.5v15h-7.5v-15zm-7.5 10v5c0 4.126 3.374 7.5 7.5 7.5h2.5v2.5h-5V30h12.5v-2.5h-5V25h2.5c4.126 0 7.5-3.374 7.5-7.5v-5h-2.5v5c0 2.773-2.227 5-5 5h-7.5c-2.773 0-5-2.227-5-5v-5H.75z" fill="#fff"/></svg>
